X:1
T:Remsberg, 77.77 D
T:Remsberg, 77.77 D
T:Wilson Lee Remsberg, 1888
T:Public Domain Courtesy of the Cyber Hymnal™
C:Wilson Lee Remsberg, 1888
Z:Public Domain
Z:Courtesy of the Cyber Hymnal™
%%score ( 1 2 ) ( 3 4 )
L:1/8
Q:1/4=97
M:3/4
K:Ab
V:1 treble 
V:2 treble 
V:3 bass 
V:4 bass 
V:1
 [CE][CA] | [Ec]3 [EA] [FA][DF] | [CE]4 [EA][Ec] | [Ge]3 [GB] A[GB] | [Ac]4 [_Gc][Gc] | %5
 [Fd]3 [DF] [DA][Fd] | [Ec]4 [EA][DF] | [CE][CA] [Ec]2 [DB]2 | [CA]4 [DA][DF] | %9
 [Fd]3 [DF] [DA][DF] | [CE]4 [DA][DF] | [Fd]3 [DF] [DA][DF] | [CE]4 [EA][Ec] | [Ge]3 [GB] A[GB] | %14
 [Ac]4 [Ec][Ge] | [Ae][GB] [Ac]2 [GB]2 | [EA]4 |] %17
V:2
 x2 | x6 | x6 | x4 A x | x6 | x6 | x6 | x6 | x6 | x6 | x6 | x6 | x6 | x4 A x | x6 | x6 | x4 |] %17
V:3
 [A,,A,][A,,E,] | [A,,A,]3 [C,A,] [D,A,][D,A,] | [A,,A,]4 [A,C]A, | [E,B,]3 [E,D] [E,C][E,E] | %4
 [A,E]4 A,A, | [D,A,]3 [D,A,] [D,F,][D,A,] | [A,,A,]4 [C,A,][D,A,] | [E,A,][E,A,] [E,A,]2 [E,G,]2 | %8
 [A,,A,]4 [D,F,][D,A,] | [D,A,]3 [D,A,] [D,F,][D,A,] | [A,,A,]4 [D,F,][D,A,] | %11
 [D,A,]3 [D,A,] [D,F,][D,A,] | [A,,A,]4 [A,C]A, | [E,B,]3 [E,D] [E,C][E,E] | [A,E]4 A,[E,B,] | %15
 [E,C][E,D] [E,E]2 [E,D]2 | [A,,C]4 |] %17
V:4
 x2 | x6 | x5 A, | x6 | x4 A,A, | x6 | x6 | x6 | x6 | x6 | x6 | x6 | x5 A, | x6 | x4 A, x | x6 | %16
 x4 |] %17

